src/22/panel/dino-status-chat.svg

<svg xmlns="http://www.w3.org/2000/svg" width="22" height="22" version="1.1">
 <defs>
  <style id="current-color-scheme" type="text/css">
   .ColorScheme-Text { color:#dfdfdf; } .ColorScheme-Highlight { color:#4285f4; }
  </style>
 </defs>
 <path style="fill:currentColor" class="ColorScheme-Text" d="M 11 3 A 8 8 0 0 0 3 11 A 8 8 0 0 0 11 19 A 8 8 0 0 0 19 11 A 8 8 0 0 0 11 3 z M 8 7 A 2 2 0 0 1 10 9 A 2 2 0 0 1 8 11 A 2 2 0 0 1 6 9 A 2 2 0 0 1 8 7 z M 14 7 A 2 2 0 0 1 16 9 A 2 2 0 0 1 14 11 A 2 2 0 0 1 12 9 A 2 2 0 0 1 14 7 z M 6.9375 11.986328 A 1.0001 1.0001 0 0 1 7.0371094 11.986328 A 1.0001 1.0001 0 0 1 7.9902344 12.853516 C 7.9902344 12.853516 8.0654113 13.359517 8.46875 13.904297 C 8.8720887 14.449077 9.5021818 15 11 15 C 12.497818 15 13.127911 14.449077 13.53125 13.904297 C 13.934586 13.359516 14.009766 12.853516 14.009766 12.853516 A 1.00101 1.00101 0 1 1 15.990234 13.146484 C 15.990234 13.146484 15.845887 14.140484 15.138672 15.095703 C 14.431457 16.050923 13.059966 17 11 17 C 8.9400341 17 7.5685434 16.050923 6.8613281 15.095703 C 6.1541128 14.140483 6.0097656 13.146484 6.0097656 13.146484 A 1.0001 1.0001 0 0 1 6.9375 11.986328 z"/>
</svg>

<svg xmlns="http://www.w3.org/2000/svg" width="22" height="22"><defs><style id="current-color-scheme" type="text/css"></style></defs><path d="M11 3a8 8 0 0 0-8 8 8 8 0 0 0 8 8 8 8 0 0 0 8-8 8 8 0 0 0-8-8zM8 7a2 2 0 0 1 2 2 2 2 0 0 1-2 2 2 2 0 0 1-2-2 2 2 0 0 1 2-2zm6 0a2 2 0 0 1 2 2 2 2 0 0 1-2 2 2 2 0 0 1-2-2 2 2 0 0 1 2-2zm-7.063 4.986a1 1 0 0 1 .1 0 1 1 0 0 1 .953.868s.075.506.479 1.05C8.872 14.45 9.502 15 11 15c1.498 0 2.128-.55 2.531-1.096.404-.544.479-1.05.479-1.05a1.001 1.001 0 1 1 1.98.292s-.144.994-.851 1.95C14.43 16.05 13.06 17 11 17s-3.431-.95-4.139-1.904c-.707-.956-.851-1.95-.851-1.95a1 1 0 0 1 .928-1.16z" fill="currentColor" color="#323232"/></svg>
